modules/hawcons-stroke/icons/icon-109-document-zip.svg

<?xml version="1.0" encoding="UTF-8" standalone="no"?>
<svg width="32px" height="32px" viewBox="0 0 32 32" version="1.1" xmlns="http://www.w3.org/2000/svg" xmlns:xlink="http://www.w3.org/1999/xlink" xmlns:sketch="http://www.bohemiancoding.com/sketch/ns">
    <!-- Generator: Sketch 3.0.3 (7891) - http://www.bohemiancoding.com/sketch -->
    <title>icon 109 document zip</title>
    <desc>Created with Sketch.</desc>
    <defs></defs>
    <g id="Page-1" stroke="none" stroke-width="1" fill="none" fill-rule="evenodd" sketch:type="MSPage">
        <g id="icon-109-document-zip" sketch:type="MSArtboardGroup" fill="#929292">
            <path d="M13,18.04962 L13,17 L12,17 L12,16 L13,16 L13,15 L12,15 L12,14 L13,14 L13,13 L12,13 L12,12 L13,12 L13,11 L12,11 L12,10 L13,10 L13,9 L12,9 L12,8 L13,8 L13,7 L12,7 L12,6 L13,6 L13,5 L12,5 L12,4 L8.9955775,4 C8.44573523,4 8,4.45526288 8,4.99545703 L8,28.004543 C8,28.5543187 8.45470893,29 8.9999602,29 L24.0000398,29 C24.5523026,29 25,28.5550537 25,28.0066023 L25,11 L20.9979131,11 C19.8944962,11 19,10.1134452 19,8.99408095 L19,4 L14,4 L14,4 L14,5 L15,5 L15,6 L14,6 L14,7 L15,7 L15,8 L14,8 L14,9 L15,9 L15,10 L14,10 L14,11 L15,11 L15,12 L14,12 L14,13 L15,13 L15,14 L14,14 L14,15 L15,15 L15,16 L14,16 L14,17 L14,18.0494551 C15.1471448,18.2800315 16,19.2895542 16,20.5 C16,21.8903379 14.8807119,23 13.5,23 C12.109662,23 11,21.8807119 11,20.5 C11,19.2820888 11.8588798,18.2795527 13,18.04962 L13,18.04962 L13,18.04962 Z M26,10 L26,28.0092049 C26,29.1017876 25.1057238,30 24.0025781,30 L8.99742191,30 C7.89092539,30 7,29.1012878 7,27.9926701 L7,5.00732994 C7,3.89833832 7.89666625,3 9.00276013,3 L20,3 L26,10 L26,10 L26,10 Z M20,4.5 L20,8.99121523 C20,9.54835167 20.4506511,10 20.9967388,10 L24.6999512,10 L20,4.5 L20,4.5 Z M13.5,19 C12.6715729,19 12,19.6657972 12,20.5 C12,21.3284271 12.6657972,22 13.5,22 C14.3284271,22 15,21.3342028 15,20.5 C15,19.6715729 14.3342028,19 13.5,19 L13.5,19 Z" id="document-zip" sketch:type="MSShapeGroup"></path>
        </g>
    </g>
</svg>

<svg width="32" height="32" xmlns="http://www.w3.org/2000/svg"><path d="M13 18.05V17h-1v-1h1v-1h-1v-1h1v-1h-1v-1h1v-1h-1v-1h1V9h-1V8h1V7h-1V6h1V5h-1V4H8.996C8.446 4 8 4.455 8 4.995v23.01c0 .55.455.995 1 .995h15c.552 0 1-.445 1-.993V11h-4.002A1.995 1.995 0 0 1 19 8.994V4h-5v1h1v1h-1v1h1v1h-1v1h1v1h-1v1h1v1h-1v1h1v1h-1v1h1v1h-1v2.05c1.147.23 2 1.24 2 2.45 0 1.39-1.12 2.5-2.5 2.5-1.39 0-2.5-1.12-2.5-2.5 0-1.218.859-2.22 2-2.45zM26 10v18.01c0 1.092-.894 1.99-1.997 1.99H8.997A2 2 0 0 1 7 27.993V5.007C7 3.898 7.897 3 9.003 3H20l6 7zm-6-5.5v4.491c0 .557.45 1.009.997 1.009H24.7L20 4.5zM13.5 19c-.828 0-1.5.666-1.5 1.5 0 .828.666 1.5 1.5 1.5.828 0 1.5-.666 1.5-1.5 0-.828-.666-1.5-1.5-1.5z" fill="#929292" fill-rule="evenodd"/></svg>
